icon/lg/codebeat.svg

<?xml version="1.0" encoding="UTF-8" standalone="no"?>
<svg viewBox="0 0 256 256" version="1.1" xmlns="http://www.w3.org/2000/svg" xmlns:xlink="http://www.w3.org/1999/xlink" preserveAspectRatio="xMidYMid" height="1em" width="1em">
  <g>
    <path d="M57.6966767,89.5613293 L85.6169184,147.799396 L136.662236,31.555287 L192.966767,170.537764 L210.90997,130.165559 L256,130.165559 L256,128 C256,57.3099698 198.69003,0 128,0 C57.3099698,0 0,57.3099698 0,128 L0,130.165559 L36.9691843,130.165559 L57.6966767,89.5613293 Z M192.58006,203.175831 L135.81148,93.4283988 L85.3075529,184.304532 L57.2326284,119.569789 L43.5432024,146.484592 L1.31480363,146.484592 C10.2864048,208.435045 63.5746224,256 128,256 C192.425378,256 245.790937,208.357704 254.685196,146.407251 L219.417523,146.407251 L192.58006,203.175831 Z" fill="#27A8E0"/>
  </g>
</svg>

<svg width="256" height="256" xmlns="http://www.w3.org/2000/svg" preserveAspectRatio="xMidYMid"><path d="m57.697 89.561 27.92 58.238 51.045-116.244 56.305 138.983 17.943-40.372H256V128C256 57.31 198.69 0 128 0S0 57.31 0 128v2.166h36.97L57.696 89.56ZM192.58 203.176 135.811 93.428l-50.503 90.877-28.075-64.735-13.69 26.915H1.315C10.286 208.435 63.575 256 128 256c64.425 0 117.79-47.642 126.685-109.593h-35.267l-26.838 56.769Z" fill="#27A8E0"/></svg>
